ix/add-circle_bold.svg

<svg viewBox="0 0 24 24" fill="none" xmlns="http://www.w3.org/2000/svg" height="1em" width="1em">
  <path d="M12 2C6.49 2 2 6.49 2 12s4.49 10 10 10 10-4.49 10-10S17.51 2 12 2Zm4 10.75h-3.25V16c0 .41-.34.75-.75.75s-.75-.34-.75-.75v-3.25H8c-.41 0-.75-.34-.75-.75s.34-.75.75-.75h3.25V8c0-.41.34-.75.75-.75s.75.34.75.75v3.25H16c.41 0 .75.34.75.75s-.34.75-.75.75Z" fill="#292D32"/>
</svg>

<svg viewBox="0 0 24 24" fill="none" xmlns="http://www.w3.org/2000/svg" height="1em" width="1em">
  <path d="M12 2C6.49 2 2 6.49 2 12C2 17.51 6.49 22 12 22C17.51 22 22 17.51 22 12C22 6.49 17.51 2 12 2ZM16 12.75H12.75V16C12.75 16.41 12.41 16.75 12 16.75C11.59 16.75 11.25 16.41 11.25 16V12.75H8C7.59 12.75 7.25 12.41 7.25 12C7.25 11.59 7.59 11.25 8 11.25H11.25V8C11.25 7.59 11.59 7.25 12 7.25C12.41 7.25 12.75 7.59 12.75 8V11.25H16C16.41 11.25 16.75 11.59 16.75 12C16.75 12.41 16.41 12.75 16 12.75Z" fill="#292D32"/>
</svg>
